X:1
T:Eripe Me
T:Hastings Crossley
T:Eripe Me
C:Hastings Crossley
%%score [ ( 1 2 ) ( 3 4 ) ]
L:1/8
Q:1/4=184
M:4/2
K:D
V:1 treble nm="S\nA"
V:2 treble 
V:3 bass nm="T\nB"
V:4 bass 
V:1
 F4 F4 F4 (E2 D2) | F8 F8 | F4 (G2 A2) E4 E4 | A16 | A4 A4 A4 (^G2 F2) | A8 B8 | c4 (B2 A2) B4 B4 | %7
 A16 | B4 (c2 d2) c4 B4 | B8 A8 | G4 (A2 B2) G4 F4 | E16 | F4 F4 F4 (E2 D2) | F8 F8 | %14
 F4 (E2 D2) E4 E4 | D16 | D8 D8 |] %17
V:2
 D4 D4 D4 A,4 | D8 C8 | D4 D4 D4 C4 | D16 | C4 C4 C4 C4 | C8 (F4 F4) | E4 (D2 C2) D4 D4 | C16 | %8
 G4 G4 G4 G4 | G8 F8 | E4 (F2 G2) E4 D4 | (D8 C8) | D4 D4 D4 A,4 | D8 D8 | D4 (B,2 D2) D4 C4 | %15
 D16 | B,8 A,8 |] %17
V:3
 A,4 A,4 A,4 (G,2 F,2) | A,8 A,8 | A,4 A,4 B,4 A,4 | A,16 | A,4 A,4 A,4 (B,2 A,2) | A,8 A,8 | %6
 A,4 A,4 A,4 ^G,4 | A,16 | D4 D4 D4 D4 | D8 D8 | B,4 B,4 B,4 B,4 | (E,8 A,8) | %12
 A,4 A,4 A,4 (G,2 F,2) | A,8 ^A,8 | B,4 F,4 A,4 A,4 | F,16 | G,8 F,8 |] %17
V:4
 D,4 D,4 D,4 D,4 | D,8 F,8 | D,4 (E,2 F,2) G,4 A,4 | D,16 | F,4 F,4 F,4 F,4 | F,8 D,8 | %6
 E,4 E,4 E,4 E,4 | (A,,8 A,8) | G,4 (A,2 B,2) A,4 G,4 | D,8 D,8 | E,4 E,4 G,,4 ^G,,4 | A,,16 | %12
 D,4 D,4 D,4 D,4 | D,8 F,,8 | G,,4 B,,4 A,,4 A,,4 | D,16 | G,,8 D,8 |] %17

